!!!COA:	Josquin des Prez
!!!CDT:	~1450-1521/08/27
!!!OTL:	Mon seul plaisir
!!!AGN:	Chanson; Ballade
!!!SCT:	NJE 28.26
!!!SCA:	New Josquin Edition 28.26
!!!voices:	4
**kern	**kern	**kern	**kern
*staff4	*staff3	*staff2	*staff1
*Ivox	*Ivox	*Ivox	*Ivox
*I"Bassus	*I"Tenor	*I"Contra	*I"Superius
*I'B	*I'T	*I'C	*I'S
*>[A,A,B]	*>[A,A,B]	*>[A,A,B]	*>[A,A,B]
*>norep[A,B]	*>norep[A,B]	*>norep[A,B]	*>norep[A,B]
*clefF4	*clefGv2	*clefGv2	*clefG2
*k[]	*k[]	*k[]	*k[]
*M2/1	*M2/1	*M2/1	*M2/1
*met(C|)	*met(C|)	*met(C|)	*met(C|)
=1-	=1-	=1-	=1-
*>A	*>A	*>A	*>A
!!LO:TX:Z=55:t=Form&colon; Ballade
!!section: A section (Mon seul plaisir / Se ung peu d'esperance)
!!!OMD: A section (Mon seul plaisir / Se ung peu d'esperance)
0G	0G	2.G/	0r
.	.	4A/	.
.	.	4B\	.
.	.	4c\	.
.	.	[2d\	.
=2	=2	=2	=2
1D	1F	2d\]	0r
.	.	4c\	.
.	.	4B\	.
1D	1F	1A	.
=3	=3	=3	=3
1E	1G	1G	0r
1C	[1c	[1e	.
=4	=4	=4	=4
0G	2c\]	2e\]	0r
.	4B\	4d\	.
.	4A/	4c\	.
.	2B\	2d\	.
.	4c\	4e\	.
.	4B\	4d\	.
=5	=5	=5	=5
2C/	2c\	2e\	0g
2.G\	1B	1d	.
4F\	.	.	.
2E\	4A/	2c\	.
.	4G/	.	.
=6	=6	=6	=6
1D	1A	1d	1f
2r	[1d	4d\	1f
.	.	4c\	.
2D\	.	4B\	.
.	.	4A/	.
=7	=7	=7	=7
1G	2d\]	4B\	1g
.	.	4G/	.
.	4c\	1g	.
.	4B\	.	.
1A	2c\	.	1cc
.	4d\	2f\	.
.	4c\	.	.
=8	=8	=8	=8
0G	0d	1g	1cc
.	.	2r	1b
.	.	2g\	.
=9	=9	=9	=9
2.C/	0c	2.e\	1cc
4D\	.	4f\	.
2E\	.	2g\	2cc\
[2F\	.	2c\	[2a/
=10	=10	=10	=10
4F\]	1A	0d	2a/]
4E\	.	.	.
4D\	.	.	4g/
4C/	.	.	4f/
1D	1B	.	2f/
.	.	.	4e/
.	.	.	4d/
=11	=11	=11	=11
1C	0c	[0G	1.e
[1C	.	.	.
.	.	.	2f/
=12	=12	=12	=12
2C/]	1c	1G]	2g/
4BB/	.	.	2a/
4AA/	.	.	.
2GG/	1d	2.g\	[1b
[2G\	.	.	.
.	.	4f\	.
=13	=13	=13	=13
2G\]	2d\	2g\	2b\]
2A\	1c	1e	2a/
1F	.	.	[1a
.	4B\	2d\	.
.	4A/	.	.
=14	=14	=14	=14
0E	2B\	[0e	2a/]
.	2c\	.	4g#i/
.	.	.	4f#i/
.	1B	.	1g#i
=15	=15	=15	=15
[0AA	1A	0e_	0a
.	2r	.	.
.	2A/	.	.
=16	=16	=16	=16
1AA]	1c	0e]	0r
2r	1c	.	.
2AA/	.	.	.
=17	=17	=17	=17
2.D\	1d	1.A	0r
4E\	.	.	.
2F\	1d	.	.
2G\	.	2B\	.
=18	=18	=18	=18
2C/	1.e	2c\	0r
1G	.	2B\	.
.	.	4G/	.
.	.	4A/	.
4F\	4d\	4B\	.
4E\	4c\	4c\	.
=19	=19	=19	=19
2D\	2B\	2d\	0r
2C/	1c	1G	.
1D	.	.	.
.	2B\	2F/	.
=20	=20	=20	=20
0C	0c	1G	0e
.	.	2r	.
.	.	2c\	.
=21	=21	=21	=21
1r	1c	1e	1g
1C	1c	2e\	1g
.	.	4f\	.
.	.	4e\	.
=22	=22	=22	=22
1F	1c	1f	1a
1A	1c	2f\	1a
.	.	4g\	.
.	.	4f\	.
=23	=23	=23	=23
2.G\	2.d\	2.g\	2.b\
4A\	4c\	4f\	4cc\
2G\	1d	2g\	2b\
2D\	.	[2f\	[2a/
=24	=24	=24	=24
2F\	4c\	2f\]	2a/]
.	4B\	.	.
2G\	4A/	2.d\	1g
.	4G/	.	.
1D	1A	.	.
.	.	4c\	.
.	.	4B\	2f#i/
.	.	4A/	.
=25	=25	=25	=25
0GGl	0Gl	0Bl	0gl
!!LO:PB:i:g=z
=26:|!	=26:|!	=26:|!	=26:|!
*>B	*>B	*>B	*>B
!!section: B section (Mieulx ne m'y povroit advenir)
!!!OMD: B section (Mieulx ne m'y povroit advenir)
1.C	0r	0r	0r
2BB/	.	.	.
=27	=27	=27	=27
1AA	0r	1.c	0r
1GG	.	.	.
.	.	2B\	.
=28	=28	=28	=28
1.C	0r	1A	0r
.	.	1G	.
[2BB/	.	.	.
=29	=29	=29	=29
2BB/]	0r	1.c	0r
1AA	.	.	.
2GG/	.	[2B\	.
=30	=30	=30	=30
1AA	0r	2B\]	0r
.	.	2A/	.
1C	.	[1A	.
=31	=31	=31	=31
0BB	0r	1A]	0r
.	.	1G#i	.
=32	=32	=32	=32
0AA	1.c	1.A	0r
.	2B\	2G/	.
=33	=33	=33	=33
0r	1A	2A/	1.cc
.	.	4G/	.
.	.	4F/	.
.	1G	1E	.
.	.	.	2b\
=34	=34	=34	=34
1AA	1c	1.e	1a
1E	2c\	.	1g
.	[2B\	4d\	.
.	.	4c\	.
=35	=35	=35	=35
2r	2B\]	2e\	1cc
2AA/	1A	2f\	.
1E	.	4g\	2cc\
.	.	4f\	.
.	2G/	4e\	[2b\
.	.	4d\	.
=36	=36	=36	=36
2F\	1A	2.c\	2b\]
1A	.	.	2a/
.	.	4d\	.
.	1c	2e\	[1a
2F\	.	2f\	.
=37	=37	=37	=37
2G\	0B	2d\	1a]
2D\	.	2f\	.
1E	.	1e	1g#i
=38	=38	=38	=38
0AA	0A	[0e	0a
=39	=39	=39	=39
1AA	2r	0e]	0r
.	2A/	.	.
2r	2c\	.	.
2AA/	2c\	.	.
=40	=40	=40	=40
2C/	2.c\	2r	0r
2C/	.	2E/	.
.	4d\	.	.
2.C/	2e\	2G/	.
.	2e\	2G/	.
4D\	.	.	.
=41	=41	=41	=41
2E\	2e\	2G/	0r
2F\	4d\	2A/	.
.	4c\	.	.
2G\	2B\	2B\	.
[2F\	[2A/	[2d\	.
=42	=42	=42	=42
4F\]	4A/]	2d\]	0r
4E\	4G/	.	.
4D\	1G	1c	.
4C/	.	.	.
1D	.	.	.
.	2F/	2B\	.
=43	=43	=43	=43
[0C	0G	1c	1r
.	.	1r	1e
=44	=44	=44	=44
0C]	1r	1c	1g
.	2.E/	4c\	1g
.	.	4B\	.
.	.	4c\	.
.	4F/	4d\	.
=45	=45	=45	=45
1r	2G/	2e\	1.g
.	2A/	2f\	.
[1G	2B\	2g\	.
.	2c\	4f\	2a/
.	.	4e\	.
=46	=46	=46	=46
2G\]	2d\	2d\	1b
4F\	2e\	2.g\	.
4E\	.	.	.
1D	4f\	.	[1dd
.	4e\	4f\	.
.	4d\	2f\	.
.	4c\	.	.
=47	=47	=47	=47
1G	1B	2d\	1dd]
.	.	1g	.
1A	1c	.	[1cc
.	.	2f\	.
=48	=48	=48	=48
0G	0d	0g	1cc]
.	.	.	1b
=49	=49	=49	=49
0C	0c	1r	0cc
.	.	2.g\	.
.	.	4f\	.
=50	=50	=50	=50
2.G\	0r	2e\	0r
.	.	2d\	.
4F\	.	.	.
2E\	.	2c\	.
2D\	.	[2B\	.
=51	=51	=51	=51
2C/	0r	4B\]	0r
.	.	4A/	.
2AA/	.	1A	.
1BB	.	.	.
.	.	2G#i/	.
=52	=52	=52	=52
[0AA	1.e	0A	1cc
.	.	.	4cc\
.	.	.	4b\
.	2d\	.	4a/
.	.	.	4g/
=53	=53	=53	=53
1AA]	1c	1.e	1a
1E	1B	.	1g
.	.	2d\	.
=54	=54	=54	=54
1F	1.A	1.c	1f
1C	.	.	[1e
.	2G/	2B\	.
=55	=55	=55	=55
1D	1F	1A	2e/]
.	.	.	2d/
1GG	1G	1B	[1d
=56	=56	=56	=56
0AA	0E	0A	1d]
.	.	.	1c#i
=57	=57	=57	=57
1D	1r	2r	0d
.	.	2D/	.
1GG	1D	2.G/	.
.	.	4A/	.
=58	=58	=58	=58
2r	2G/	2B\	0r
2GG/	2G/	2B\	.
2GG/	2G/	2B\	.
2GG/	2A/	2c\	.
=59	=59	=59	=59
2G\	1.B	2d\	1r
4F\	.	2e\	.
4E\	.	.	.
2D\	.	2f\	1d
2D\	4A/	4e\	.
.	4B\	4d\	.
=60	=60	=60	=60
1.C	1.c	1.e	1g
.	.	.	1g
2C/	4B\	4d\	.
.	4A/	4c\	.
=61	=61	=61	=61
2.G\	1.B	[0d	1g
4F\	.	.	.
1D	.	.	1a
.	[2A/	.	.
=62	=62	=62	=62
1GG	2A/]	1d]	1b
.	2G/	.	.
1BB	[1G	2r	1dd
.	.	2D/	.
=63	=63	=63	=63
0AA	1G]	2E/	1.cc
.	.	1C	.
.	1F#i	.	.
.	.	4D/	4b\
.	.	4C/	4a/
=64	=64	=64	=64
2GG/	1G	2D/	1b
1G	.	2E/	.
.	1A	1D	2b\
2F\	.	.	[2a/
=65	=65	=65	=65
1G	1B	2r	2a/]
.	.	1d	2g/
1E	1G	.	[1g
.	.	2c\	.
=66	=66	=66	=66
0D	0A	[0d	2g/]
.	.	.	4f#i/
.	.	.	4e/
.	.	.	1f#i
=67	=67	=67	=67
1GG	2G/	1d]	2g/
.	2B\	.	2d/
2r	2B\	2r	2g/
2GG/	2B\	2D/	2g/
=68	=68	=68	=68
2C/	2c\	2E/	2g/
2C/	1A	2E/	2a/
2BB/	.	2D/	2b\
2BB/	[2G/	2D/	2dd\
=69	=69	=69	=69
2AA/	2G/]	2E/	4cc\
.	.	.	4b\
2AA/	2F/	2C/	4a/
.	.	.	4g/
2GG/	2G/	2D/	2b\
2F\	2A/	[2d\	[2a/
=70	=70	=70	=70
2G\	2B\	4d\]	2a/]
.	.	8c\L	.
.	.	8B\J	.
2C/	2c\	2e\	1g
1D	1A	4d\	.
.	.	4c\	.
.	.	4B\	2f#i/
.	.	4A/	.
=71	=71	=71	=71
0GGl	0Gl	0Bl	0gl
==	==	==	==
*-	*-	*-	*-
!!!RDF**kern: l=long note in original notation
!!!RDF**kern: i=editorial accidental
!!!RDF**kern: V=start of tuplet marker
!!!RDF**kern: Z=end of tuplet marker
!!!ENC:	Chris Gage 06-08-2012
!!!END:	2012/06/10/
!!!EED:	Jesse Rodin
!!!EEV:	2012/06/20/
!!attribution-level@Jos: 4 (questionable)
!!!ONB:	Translated from MusicXML and edited on 2012/06/20/ by Craig Sapp
!!muse2ps: C^@{COA}?\n@{SCT}^i2I150v85,85,85,150Q16
